X:1
L:1/8
Q:1/2=85
M:4/4
K:D
|:""^A"" A2 | d2 d>d a2 a>g | f2 d>d d2 c>d | e>dc>d e>dc>B | A2 A>A A>BA>G | F2 F>F A2 A>A | 
 d>Ad>e f3 f | f>ag>e d2 c2 | d2 d>d d2 ::""^B"" c>d | e3 d c>AB>c | d>AF>A D3 A | d>Ad>e f2 e>d | 
 c2 a>a a>gf>e | f2 f>e d>AF>A | d>Ad>e f3 f | f>ag>e d2 c2 | d2 d>d d2 :|
